X:1165
T:The Dawn
M:4/4
L:1/8
K:A
E|:A,2 CE D2 FA|E2 GB Acec|d2 (3fff ecAc|B3 B BAFA|
A,2 CE DFAF|EGBG Acec|df (3fef ecAc|1 BdcA BA A2 :|2 BdcA BAAB ||
c2 eB fcec|AGAc BAFA|E3 c cBAc|defg afed|
c2 ec fcec|AGAc BAFA|1 E2 c cBAc dfed|cA A6 B :|2 E3 F ABce|dfed cAAE|>|
